X: 10621
T: CHORUS JIG
C:
%R: reel
B: Elias Howe "The Musician's Companion" Part 1 1842 p.62 #1
S: http://imslp.org/wiki/The_Musician's_Companion_(Howe,_Elias)
Z: 2015 John Chambers <jc:trillian.mit.edu>
M: 2/4
L: 1/16
K: Dmix
% - - - - - - - - - - - - - - - - - - - - - - - - -
(AG) |\
F2(DF) (AB)(AG) | (FA)(DF) A2d2 | D2(DF) (AB)(AF) | (GF)(EF) G2(AG) |\
F2(DF) (AB)(AG) | (FA)(DF) A2d2 | (DF)(DF) (AB)(AG) | (GF)(EF) G2 |]
Bc |\
d>Bc>A B>GA>F | (Ad)(cB) A2B>c | d>Bc>A B>GA>F | (Ac)(BA) G2B>c |\
d>Bc>A B>GA>F | A>Bc>d e>fg>e | d>Bc>A B>GA>F | A>cB>A G2 |]
a>g |\
(fd)dd (fd)dd | (Ad)(fa) (ab)(ag) | (fd)dd (fd)dd | (Ad)(ef) g2(ag) |\
(fd)dd (fd)dd | (Ad)(fa) (ab)(ag) | (df)ff (df)ff | (ed)(ef) g2 |]
[fB]>[ec] |\
d>Bc>A B>GF>G | (Ad)(^cd) A2B>c | d>Bc>A B>GF>G | (Ac)(BA) G2B>c |\
d>Bc>A B>GF>G | (AB)(cd) (ef)(ge) | d>Bc>A B>GF>G | (Ac)(BA) G2 |]
% - - - - - - - - - - - - - - - - - - - - - - - - -


